src/16/actions/fcitx-chn.svg

<svg xmlns="http://www.w3.org/2000/svg" width="16" height="16"><defs><style id="current-color-scheme" type="text/css"></style></defs><path d="M2 0C.892 0 0 .892 0 2v12c0 1.108.892 2 2 2h12c1.108 0 2-.892 2-2V2c0-1.108-.892-2-2-2zm5 2h1v2h5v7h-1v-1H8v4H7v-4H4v1H3V4h4zM4 5v4h3V5zm4 0v4h4V5z" fill="currentColor" color="#5d656b"/></svg>

<svg xmlns="http://www.w3.org/2000/svg" width="16" height="16" version="1.1">
 <defs>
  <style id="current-color-scheme" type="text/css">
   .ColorScheme-Text { color:#5d656b; } .ColorScheme-Highlight { color:#5294e2; }
  </style>
 </defs>
 <path style="fill:currentColor" class="ColorScheme-Text" d="M 2,0 C 0.892,0 0,0.892 0,2 V 14 C 0,15.108 0.892,16 2,16 H 14 C 15.108,16 16,15.108 16,14 V 2 C 16,0.892 15.108,0 14,0 Z M 7,2 H 8 V 4 H 13 V 11 H 12 V 10 H 8 V 14 H 7 V 10 H 4 V 11 H 3 V 4 H 7 Z M 4,5 V 9 H 7 V 5 Z M 8,5 V 9 H 12 V 5 Z"/>
</svg>
